src/renderer/src/assets/icons/back.svg

<svg t="1709566027928" class="icon" viewBox="0 0 1024 1024" version="1.1"
    xmlns="http://www.w3.org/2000/svg" p-id="11132" width="20" height="20">
    <path
        d="M738.145103 170.248828 663.234207 95.337931 313.114483 445.457655 312.937931 445.298759 238.768552 519.450483 238.945103 519.627034 238.768552 519.785931 313.679448 594.696828 313.838345 594.537931 658.996966 939.696552 733.166345 865.509517 388.007724 520.368552Z"
        fill="#ffffff" p-id="11133"></path>
</svg>

<svg class="icon" viewBox="0 0 1024 1024" xmlns="http://www.w3.org/2000/svg" width="20" height="20"><path d="m738.145 170.249-74.91-74.911-350.12 350.12-.177-.16-74.17 74.152.177.177-.176.159 74.91 74.91.16-.158 345.158 345.159 74.17-74.187-345.16-345.141z" fill="#fff"/></svg>
